X: 3140
T: STONEBYRES
Q: "Reel."
R: Reel.
%R: reel
B: James Kerr "Merry Melodies" v.3 p.17 #140
Z: 2016 John Chambers <jc:trillian.mit.edu>
Q:"Reel."
M: C
L: 1/8
K: Am
|:\
vEAAB c2(Bc) | dcBA GABG |\
EAAB c2(BA) | BGdB A/A/A A2 ::\
cde^f gage |
dcBA GABG |\
[1 cde^f gage | dBGB A/A/A A2 :|\
[2 cedf eaec | BGdB A/A/A A |]

%%sep 1 1 500
%%sep 1 1 500

